Static/3pl-logo.svg

<svg width="208" height="44" viewBox="0 0 208 44" fill="none" xmlns="http://www.w3.org/2000/svg">
<path d="M27.9211 18.3312V40.3353L20.9403 44V22L13.9596 18.3353V18.3312L20.9403 14.6665L27.9211 18.3312Z" fill="#8FD348"/>
<path d="M41.8925 10.9934V33.0055L34.919 36.666L34.9117 36.6622V29.3371L34.9194 29.3326L34.9117 29.3288V22.0036L34.9198 21.9995L34.9117 21.9953V14.6702L34.9194 14.6664L34.9117 14.6619L27.9348 10.9995L34.9117 7.33671L34.919 7.33256L41.8925 10.9934Z" fill="#8FD348"/>
<path d="M27.9226 3.66473V3.6685L13.9611 10.9978L13.9577 11.0001L6.98037 14.6625L6.9731 14.667L0 11.0061V10.994L6.9731 7.33316L6.98037 7.33731V7.32938L13.9577 3.66699L13.9611 3.6685V3.66473L20.9419 7.72476e-05L27.9226 3.66473Z" fill="#8FD348"/>
<path d="M62.1489 32.9678C60.7682 32.9678 59.4946 32.7171 58.3278 32.2169C57.1603 31.7166 56.2216 30.9506 55.5114 29.9189C54.8007 28.8878 54.4253 27.5714 54.3848 25.9688H58.8605C58.8804 26.5898 59.0174 27.1456 59.2715 27.636C59.5252 28.1271 59.9006 28.5122 60.3981 28.7923C60.8952 29.0732 61.4792 29.2129 62.1489 29.2129C62.7983 29.2129 63.3462 29.0883 63.7928 28.8376C64.2394 28.5873 64.5846 28.257 64.8283 27.8462C65.0717 27.4363 65.1934 26.9602 65.1934 26.4196C65.1934 25.7789 65.0415 25.2432 64.7369 24.8124C64.4323 24.3821 63.9956 24.0517 63.4274 23.8211C62.8591 23.5911 62.1894 23.4756 61.4179 23.4756H59.8348V19.7811H61.4179C62.2904 19.7811 63.047 19.581 63.6864 19.1805C64.3259 18.7799 64.6454 18.1491 64.6454 17.288C64.6454 16.5873 64.4173 16.0315 63.9604 15.6208C63.5039 15.2108 62.8897 15.005 62.1182 15.005C61.2251 15.005 60.5351 15.2708 60.048 15.8013C59.5608 16.3321 59.2968 16.9678 59.2562 17.7085H54.8413C54.9025 16.3468 55.242 15.1806 55.8615 14.2092C56.4803 13.2382 57.3275 12.4971 58.404 11.9863C59.4793 11.4755 60.728 11.2203 62.1489 11.2203C63.6302 11.2203 64.8938 11.4808 65.9396 12.0014C66.9847 12.5224 67.7765 13.2178 68.3145 14.0888C68.8522 14.9601 69.1216 15.9062 69.1216 16.9274C69.1216 17.7685 68.9586 18.5043 68.634 19.1352C68.3092 19.766 67.8882 20.287 67.3705 20.6974C66.8531 21.1081 66.2997 21.403 65.7112 21.5835C66.5029 21.7239 67.1925 22.024 67.7814 22.4846C68.37 22.9456 68.8269 23.5258 69.1518 24.2269C69.4763 24.928 69.6389 25.7189 69.6389 26.5997C69.6389 27.7613 69.3496 28.8278 68.771 29.7988C68.1928 30.7702 67.3448 31.5411 66.2289 32.1115C65.1123 32.6824 63.7523 32.9678 62.1489 32.9678Z" fill="#002046"/>
<path d="M76.1908 21.1924H79.6314C80.8288 21.1924 81.6913 20.9221 82.2194 20.3815C82.7467 19.8409 83.0108 19.1198 83.0108 18.2186C83.0108 17.2775 82.7467 16.5469 82.2194 16.026C81.6913 15.5053 80.8288 15.2449 79.6314 15.2449H76.1908V21.1924ZM71.6235 32.6069V11.5802H79.9356C81.681 11.5802 83.1221 11.8709 84.2595 12.4515C85.396 13.0325 86.2482 13.8182 86.8169 14.8092C87.3848 15.8006 87.6695 16.9373 87.6695 18.2186C87.6695 19.3599 87.4001 20.4317 86.8624 21.4325C86.3244 22.4341 85.4821 23.2454 84.3352 23.8657C83.1883 24.4867 81.7216 24.797 79.9356 24.797H76.1908V32.6069H71.6235Z" fill="#002046"/>
<path d="M89.1017 32.6074V11.5811H93.6689V29.1232H102.864V32.6074H89.1017Z" fill="#002046"/>
<path d="M115.35 32.6074V13.323H108.956V11.5811H123.876V13.323H117.482V32.6074H115.35Z" fill="#002046"/>
<path d="M128.987 32.9678C127.566 32.9678 126.308 32.642 125.212 31.9915C124.116 31.341 123.253 30.4297 122.624 29.2582C121.994 28.0867 121.68 26.7099 121.68 25.1281C121.68 23.5462 121.989 22.1743 122.609 21.0126C123.227 19.8514 124.095 18.9506 125.212 18.3092C126.328 17.6685 127.607 17.348 129.048 17.348C130.51 17.348 131.758 17.6738 132.794 18.3243C133.829 18.9751 134.62 19.8215 135.168 20.8624C135.716 21.904 135.99 23.0252 135.99 24.2269V24.8574C135.99 25.0782 135.98 25.3281 135.96 25.6086H123.324V23.8063H133.92C133.859 22.3445 133.361 21.2033 132.428 20.3818C131.494 19.561 130.337 19.1503 128.957 19.1503C128.043 19.1503 127.191 19.3508 126.399 19.7509C125.608 20.1519 124.968 20.7378 124.481 21.5083C123.994 22.2796 123.751 23.2355 123.751 24.3768V25.1881C123.751 26.5298 124.004 27.6465 124.512 28.5371C125.019 29.4285 125.674 30.0891 126.476 30.5195C127.277 30.9506 128.115 31.1655 128.987 31.1655C130.124 31.1655 131.078 30.9053 131.85 30.3844C132.621 29.8641 133.169 29.143 133.494 28.2219H135.564C135.32 29.123 134.904 29.934 134.316 30.6547C133.727 31.3757 132.986 31.9417 132.093 32.352C131.2 32.7624 130.165 32.9678 128.987 32.9678Z" fill="#002046"/>
<path d="M137.452 32.6074V17.7087H139.4L139.552 20.6225H139.644C139.948 19.9214 140.364 19.3306 140.892 18.85C141.419 18.3694 142.049 17.999 142.78 17.7385C143.51 17.4788 144.343 17.3482 145.276 17.3482V19.5408H144.698C144.008 19.5408 143.353 19.6265 142.734 19.7964C142.115 19.9667 141.572 20.257 141.105 20.6674C140.638 21.0781 140.268 21.6286 139.994 22.3194C139.72 23.0103 139.583 23.8665 139.583 24.8878V32.6074H137.452Z" fill="#002046"/>
<path d="M146.285 32.6064V17.7077H148.234L148.447 20.1409H148.538C149.005 19.3198 149.639 18.6493 150.441 18.1283C151.243 17.6077 152.222 17.3472 153.379 17.3472C154.069 17.3472 154.729 17.4423 155.358 17.6326C155.987 17.8233 156.556 18.143 157.063 18.5938C157.57 19.0442 157.997 19.6705 158.342 20.4712H158.433C158.86 19.49 159.545 18.7244 160.489 18.1732C161.432 17.6228 162.453 17.3472 163.549 17.3472C164.645 17.3472 165.619 17.5775 166.472 18.0381C167.324 18.499 167.999 19.205 168.496 20.1556C168.994 21.107 169.242 22.3237 169.242 23.8052V32.6064H167.111V24.0456C167.111 22.4038 166.776 21.1821 166.106 20.381C165.436 19.5803 164.493 19.1793 163.275 19.1793C162.442 19.1793 161.686 19.3749 161.007 19.7652C160.326 20.1556 159.793 20.7264 159.408 21.4773C159.022 22.2282 158.829 23.1547 158.829 24.2559V32.6064H156.698V24.0456C156.698 22.4038 156.363 21.1821 155.693 20.381C155.023 19.5803 154.08 19.1793 152.862 19.1793C152.009 19.1793 151.248 19.4002 150.578 19.8404C149.908 20.281 149.38 20.9216 148.995 21.7627C148.609 22.6039 148.416 23.6455 148.416 24.8868V32.6064H146.285Z" fill="#002046"/>
<path d="M171.586 17.7087H173.718V32.6074H171.586V17.7087ZM172.652 14.2543C172.226 14.2543 171.861 14.1045 171.556 13.804C171.251 13.5034 171.099 13.1331 171.099 12.6925C171.099 12.2319 171.246 11.862 171.541 11.5811C171.834 11.3009 172.205 11.1605 172.652 11.1605C173.078 11.1605 173.444 11.3009 173.748 11.5811C174.052 11.862 174.205 12.2319 174.205 12.6925C174.205 13.1331 174.052 13.5034 173.748 13.804C173.444 14.1045 173.078 14.2543 172.652 14.2543Z" fill="#002046"/>
<path d="M176.304 32.6074V17.7087H178.253L178.436 20.2619H178.527C179.034 19.3207 179.724 18.6 180.597 18.0991C181.47 17.5988 182.475 17.3482 183.612 17.3482C184.788 17.3482 185.814 17.5785 186.687 18.039C187.559 18.5 188.239 19.206 188.727 20.1566C189.214 21.108 189.457 22.3247 189.457 23.8061V32.6074H187.326V24.0466C187.326 22.4048 186.976 21.1831 186.276 20.382C185.576 19.5812 184.565 19.1803 183.246 19.1803C182.333 19.1803 181.511 19.4012 180.78 19.8414C180.049 20.2819 179.475 20.9226 179.06 21.7637C178.643 22.6048 178.436 23.6464 178.436 24.8878V32.6074H176.304Z" fill="#002046"/>
<path d="M196.794 31.1054C197.524 31.1054 198.189 30.9654 198.788 30.6849C199.387 30.4047 199.904 30.014 200.341 29.5134C200.777 29.0132 201.112 28.4171 201.345 27.7262C201.578 27.0353 201.696 26.2893 201.696 25.4882V25.3682H197.707C196.611 25.3682 195.733 25.4988 195.073 25.7585C194.414 26.019 193.936 26.3645 193.642 26.7948C193.348 27.226 193.201 27.7213 193.201 28.2819C193.201 28.8425 193.338 29.3333 193.612 29.7535C193.886 30.1745 194.292 30.5048 194.83 30.7449C195.367 30.9854 196.022 31.1054 196.794 31.1054ZM196.58 32.9678C195.322 32.9678 194.277 32.7522 193.444 32.3218C192.612 31.8914 191.993 31.3259 191.587 30.6248C191.181 29.9242 190.978 29.1634 190.978 28.3419C190.978 27.3011 191.252 26.4245 191.8 25.7136C192.348 25.0031 193.119 24.467 194.114 24.1065C195.109 23.7463 196.255 23.5658 197.555 23.5658H201.696C201.696 22.625 201.538 21.8236 201.224 21.1629C200.909 20.5022 200.457 20.0016 199.869 19.6611C199.28 19.3206 198.549 19.1503 197.676 19.1503C196.621 19.1503 195.708 19.4161 194.936 19.9461C194.165 20.4773 193.688 21.2531 193.505 22.2743H191.252C191.374 21.1931 191.754 20.287 192.394 19.5558C193.033 18.8249 193.82 18.2744 194.753 17.9037C195.687 17.5333 196.661 17.348 197.676 17.348C199.077 17.348 200.229 17.6085 201.132 18.1291C202.035 18.6501 202.71 19.3659 203.157 20.2768C203.603 21.1882 203.827 22.2441 203.827 23.4458V32.6072H201.878L201.665 29.7237H201.574C201.371 30.1443 201.117 30.555 200.813 30.9552C200.508 31.3561 200.158 31.7015 199.762 31.9915C199.367 32.2822 198.904 32.517 198.377 32.6975C197.849 32.8775 197.25 32.9678 196.58 32.9678Z" fill="#002046"/>
<path d="M205.869 11.4308H208V32.6074H205.869V11.4308Z" fill="#002046"/>
</svg>

<svg xmlns="http://www.w3.org/2000/svg" width="208" height="44" fill="none"><path fill="#8FD348" d="M27.921 18.331v22.004L20.941 44V22l-6.981-3.665v-.004l6.98-3.665 6.981 3.665ZM41.892 10.993v22.012l-6.973 3.661-.007-.004v-7.325l.007-.004-.007-.004v-7.325l.008-.005-.008-.004V14.67l.007-.004-.007-.004-6.977-3.663 6.977-3.662.007-.004 6.974 3.66ZM27.923 3.665v.003l-13.962 7.33-.003.002-6.978 3.662-.007.005L0 11.007v-.013l6.973-3.66.007.003V7.33l6.978-3.662.003.002v-.004L20.941 0l6.982 3.665Z"/><path fill="#002046" d="M62.149 32.968c-1.38 0-2.654-.25-3.821-.751a6.416 6.416 0 0 1-2.817-2.298c-.71-1.031-1.086-2.348-1.126-3.95h4.476c.02.62.156 1.177.41 1.667.254.491.63.876 1.127 1.156.497.281 1.081.42 1.75.42.65 0 1.198-.124 1.645-.374a2.72 2.72 0 0 0 1.035-.992c.244-.41.365-.886.365-1.426 0-.641-.151-1.177-.456-1.608-.305-.43-.741-.76-1.31-.99-.568-.23-1.238-.346-2.01-.346h-1.582V19.78h1.583c.872 0 1.629-.2 2.268-.6.64-.401.96-1.032.96-1.893 0-.7-.229-1.256-.686-1.667-.456-.41-1.07-.616-1.842-.616-.893 0-1.583.266-2.07.796a2.976 2.976 0 0 0-.792 1.908h-4.415c.062-1.362.401-2.528 1.02-3.5.62-.97 1.467-1.712 2.543-2.223 1.075-.51 2.324-.766 3.745-.766 1.481 0 2.745.26 3.79.781 1.046.521 1.838 1.217 2.376 2.088.537.871.807 1.817.807 2.838 0 .841-.163 1.577-.488 2.208a4.715 4.715 0 0 1-1.263 1.562c-.518.411-1.071.706-1.66.887.792.14 1.481.44 2.07.9a4.67 4.67 0 0 1 1.37 1.743c.325.701.488 1.492.488 2.373 0 1.161-.29 2.228-.868 3.199-.578.971-1.426 1.742-2.542 2.313-1.117.57-2.477.856-4.08.856ZM76.19 21.192h3.441c1.198 0 2.06-.27 2.588-.81.528-.541.792-1.262.792-2.163 0-.942-.264-1.672-.792-2.193-.528-.52-1.39-.781-2.588-.781h-3.44v5.947Zm-4.566 11.415V11.58h8.312c1.745 0 3.186.29 4.323.871 1.137.582 1.99 1.367 2.558 2.358.568.992.853 2.128.853 3.41a6.69 6.69 0 0 1-.808 3.213c-.538 1.002-1.38 1.813-2.527 2.434-1.147.62-2.613.931-4.4.931h-3.744v7.81h-4.567ZM89.102 32.607V11.581h4.567v17.542h9.195v3.484H89.102ZM115.35 32.607V13.323h-6.394v-1.742h14.92v1.742h-6.394v19.284h-2.132ZM128.987 32.968c-1.421 0-2.679-.326-3.775-.977-1.096-.65-1.959-1.561-2.588-2.733-.63-1.171-.944-2.548-.944-4.13 0-1.582.309-2.954.929-4.115a6.655 6.655 0 0 1 2.603-2.704c1.116-.64 2.395-.961 3.836-.961 1.462 0 2.71.326 3.746.976a6.587 6.587 0 0 1 2.374 2.538 7.117 7.117 0 0 1 .822 3.365v.63c0 .221-.01.471-.03.752h-12.636v-1.803h10.596c-.061-1.462-.559-2.603-1.492-3.424-.934-.821-2.091-1.232-3.471-1.232-.914 0-1.766.2-2.558.6a4.81 4.81 0 0 0-1.918 1.758c-.487.772-.73 1.727-.73 2.869v.811c0 1.342.253 2.459.761 3.35.507.89 1.162 1.551 1.964 1.982a5.23 5.23 0 0 0 2.511.646c1.137 0 2.091-.26 2.863-.782.771-.52 1.319-1.241 1.644-2.162h2.07a6.489 6.489 0 0 1-1.248 2.433 6.124 6.124 0 0 1-2.223 1.697c-.893.41-1.928.616-3.106.616ZM137.452 32.607V17.71h1.948l.152 2.913h.092a5.108 5.108 0 0 1 1.248-1.772 5.51 5.51 0 0 1 1.888-1.112c.73-.26 1.563-.39 2.496-.39v2.193h-.578c-.69 0-1.345.085-1.964.255-.619.17-1.162.461-1.629.871-.467.411-.837.962-1.111 1.652-.274.691-.411 1.547-.411 2.569v7.72h-2.131ZM146.285 32.606V17.708h1.949l.213 2.433h.091a5.772 5.772 0 0 1 1.903-2.013c.802-.52 1.781-.78 2.938-.78.69 0 1.35.094 1.979.285a4.51 4.51 0 0 1 1.705.96c.507.451.934 1.078 1.279 1.878h.091a4.842 4.842 0 0 1 2.056-2.298 5.969 5.969 0 0 1 3.06-.826c1.096 0 2.07.23 2.923.691.852.461 1.527 1.167 2.024 2.118.498.951.746 2.168.746 3.65v8.8h-2.131v-8.56c0-1.642-.335-2.864-1.005-3.665-.67-.8-1.613-1.202-2.831-1.202a4.47 4.47 0 0 0-2.268.586c-.681.39-1.214.961-1.599 1.712-.386.751-.579 1.678-.579 2.779v8.35h-2.131v-8.56c0-1.642-.335-2.864-1.005-3.665-.67-.8-1.613-1.202-2.831-1.202-.853 0-1.614.221-2.284.661-.67.441-1.198 1.082-1.583 1.923-.386.84-.579 1.882-.579 3.124v7.72h-2.131ZM171.586 17.709h2.132v14.898h-2.132V17.71Zm1.066-3.455c-.426 0-.791-.15-1.096-.45-.305-.3-.457-.67-.457-1.111 0-.461.147-.831.442-1.112.293-.28.664-.42 1.111-.42.426 0 .792.14 1.096.42.304.281.457.65.457 1.112 0 .44-.153.81-.457 1.111-.304.3-.67.45-1.096.45ZM176.304 32.607V17.71h1.949l.183 2.553h.091c.507-.941 1.197-1.662 2.07-2.163.873-.5 1.878-.75 3.015-.75 1.176 0 2.202.23 3.075.69.872.461 1.552 1.167 2.04 2.118.487.951.73 2.168.73 3.65v8.8h-2.131v-8.56c0-1.642-.35-2.864-1.05-3.665-.7-.8-1.711-1.202-3.03-1.202-.913 0-1.735.221-2.466.661-.731.44-1.305 1.082-1.72 1.923-.417.84-.624 1.882-.624 3.124v7.72h-2.132ZM196.794 31.105c.73 0 1.395-.14 1.994-.42a4.663 4.663 0 0 0 1.553-1.172c.436-.5.771-1.096 1.004-1.787a6.96 6.96 0 0 0 .351-2.238v-.12h-3.989c-1.096 0-1.974.13-2.634.39-.659.261-1.137.607-1.431 1.037a2.576 2.576 0 0 0-.441 1.487c0 .56.137 1.051.411 1.471.274.421.68.752 1.218.992.537.24 1.192.36 1.964.36Zm-.214 1.863c-1.258 0-2.303-.216-3.136-.646-.832-.43-1.451-.996-1.857-1.697a4.474 4.474 0 0 1-.609-2.283c0-1.04.274-1.918.822-2.628.548-.71 1.319-1.247 2.314-1.607.995-.36 2.141-.541 3.441-.541h4.141c0-.941-.158-1.742-.472-2.403-.315-.66-.767-1.161-1.355-1.502-.589-.34-1.32-.51-2.193-.51-1.055 0-1.968.265-2.74.795-.771.531-1.248 1.307-1.431 2.328h-2.253c.122-1.08.502-1.987 1.142-2.718a6.049 6.049 0 0 1 2.359-1.652 7.857 7.857 0 0 1 2.923-.556c1.401 0 2.553.26 3.456.781a4.959 4.959 0 0 1 2.025 2.148c.446.911.67 1.967.67 3.169v9.161h-1.949l-.213-2.883h-.091c-.203.42-.457.831-.761 1.231a5.11 5.11 0 0 1-1.051 1.037c-.395.29-.858.525-1.385.705-.528.18-1.127.27-1.797.27ZM205.869 11.43H208v21.177h-2.131V11.431Z"/></svg>
